app/src/main/assets/symbols/place_of_worship/sikhist.svg

<?xml version="1.0" encoding="UTF-8" standalone="no"?>
<svg
   xmlns:dc="http://purl.org/dc/elements/1.1/"
   xmlns:cc="http://creativecommons.org/ns#"
   xmlns:rdf="http://www.w3.org/1999/02/22-rdf-syntax-ns#"
   xmlns:svg="http://www.w3.org/2000/svg"
   xmlns="http://www.w3.org/2000/svg"
   version="1.1"
   width="16"
   height="16"
   viewBox="0 0 16 16"
   id="svg2">
  <metadata id="metadata8">
    <rdf:RDF>
      <cc:Work rdf:about="">
        <dc:format>image/svg+xml</dc:format>
        <dc:type rdf:resource="http://purl.org/dc/dcmitype/StillImage"/>
        <dc:title/>
      </cc:Work>
    </rdf:RDF>
  </metadata>
  <defs id="defs6"/>
  <rect width="16" height="16" x="0" y="0" id="canvas" style="fill:none;stroke:none;visibility:hidden"/>
  <path d="M 6.984334,0 5.981723,1 C 6.044283,1.4367914 6.060103,1.7749535 6.10705,2.15625 4.882655,2.5360844 3.976501,3.653806 3.976501,5 c 0,1.3565494 0.922901,2.472798 2.16188,2.84375 C 6.087361,8.219854 6.053031,8.57327 5.981723,9 l 0.501306,0.5 0,0.40625 C 5.561404,9.285538 4.581513,8.595246 3.976501,8 1.943686,6 2.480323,2.5 4.979112,1 2.980081,1.5 1,3.3084098 1,6 c 0,3 2.976501,4 2.976501,5 l 1.002611,-1 1.284596,0.71875 C 5.649538,11.098319 4.979112,11.5 4.979112,11.5 l 0.501306,0.5 1.065274,-0.59375 0,0.71875 C 6.220259,12.290251 5.981723,12.610806 5.981723,13 c 0,0.552285 0.448885,1 1.002611,1 0.553727,0 1.002611,-0.447715 1.002611,-1 0,-0.389194 -0.207204,-0.709749 -0.532637,-0.875 l 0,-0.71875 L 8.488251,12 8.989556,11.5 c 0,0 -0.706716,-0.44273 -1.253264,-0.78125 L 8.989556,10 9.992167,11 C 9.992167,10 13,9 13,6 13,3.3084098 10.994778,1.5 8.989556,1 11.496084,2.5 12.031277,6 9.992167,8 9.377366,8.603009 8.420949,9.310953 7.48564,9.9375 L 7.48564,9.5 7.986945,9 C 7.917725,8.585777 7.88039,8.225109 7.830287,7.84375 9.069267,7.472798 9.992167,6.3565494 9.992167,5 c 0,-1.3565494 -0.9229,-2.4727975 -2.16188,-2.84375 C 7.880387,1.7748912 7.917727,1.4142232 7.986945,1 L 6.984334,0 z M 7.704961,3.125 C 8.458292,3.4127741 8.989556,4.1474103 8.989556,5 c 0,0.8525897 -0.531264,1.5872258 -1.284595,1.875 -0.121261,-1.2890411 -0.121261,-2.4609588 0,-3.75 z M 6.201044,3.15625 c 0.009,-0.0038 0.02227,0.00367 0.03133,0 C 6.3673,4.5461524 6.383387,5.638887 6.263704,6.875 5.510372,6.5872258 4.979108,5.8525897 4.979108,5 c 0,-0.8284273 0.502228,-1.5401335 1.221932,-1.84375 z M 4.477807,12 c -0.276864,0 -0.501306,0.223858 -0.501306,0.5 0,0.276142 0.224442,0.5 0.501306,0.5 0.276863,0 0.501305,-0.223858 0.501305,-0.5 0,-0.276142 -0.224442,-0.5 -0.501305,-0.5 z m 5.013055,0 c -0.276863,0 -0.501306,0.223858 -0.501306,0.5 0,0.276142 0.224443,0.5 0.501306,0.5 0.276863,0 0.501305,-0.223858 0.501305,-0.5 0,-0.276142 -0.224442,-0.5 -0.501305,-0.5 z" id="sikhist" style="fill:#000000;fill-opacity:1;stroke:none" transform="translate(1,1)"/>
</svg>

<?xml version="1.0" encoding="UTF-8"?>
<svg version="1.1" viewBox="0 0 16 16" xmlns="http://www.w3.org/2000/svg" xmlns:cc="http://creativecommons.org/ns#" xmlns:dc="http://purl.org/dc/elements/1.1/" xmlns:rdf="http://www.w3.org/1999/02/22-rdf-syntax-ns#">
<metadata>
<rdf:RDF>
<cc:Work rdf:about="">
<dc:format>image/svg+xml</dc:format>
<dc:type rdf:resource="http://purl.org/dc/dcmitype/StillImage"/>
<dc:title/>
</cc:Work>
</rdf:RDF>
</metadata>
<rect width="16" height="16" fill="none" visibility="hidden"/>
<path transform="translate(1,1)" d="m6.9843 0-1.0026 1c0.06256 0.43679 0.07838 0.77495 0.12533 1.1562-1.2244 0.37983-2.1305 1.4976-2.1305 2.8438 0 1.3565 0.9229 2.4728 2.1619 2.8438-0.05102 0.3761-0.08535 0.72952-0.15666 1.1562l0.50131 0.5v0.40625c-0.92162-0.62071-1.9015-1.311-2.5065-1.9062-2.0328-2-1.4962-5.5 1.0026-7-1.999 0.5-3.9791 2.3084-3.9791 5 0 3 2.9765 4 2.9765 5l1.0026-1 1.2846 0.71875c-0.61417 0.37957-1.2846 0.78125-1.2846 0.78125l0.50131 0.5 1.0653-0.59375v0.71875c-0.32543 0.16525-0.56397 0.48581-0.56397 0.875 0 0.55228 0.44888 1 1.0026 1 0.55373 0 1.0026-0.44772 1.0026-1 0-0.38919-0.2072-0.70975-0.53264-0.875v-0.71875l1.0339 0.59375 0.5013-0.5s-0.70672-0.44273-1.2533-0.78125l1.2533-0.71875 1.0026 1c0-1 3.0078-2 3.0078-5 0-2.6916-2.0052-4.5-4.0104-5 2.5065 1.5 3.0417 5 1.0026 7-0.6148 0.60301-1.5712 1.311-2.5065 1.9375v-0.4375l0.5013-0.5c-0.06922-0.41422-0.10656-0.77489-0.15666-1.1562 1.239-0.37095 2.1619-1.4872 2.1619-2.8438s-0.9229-2.4728-2.1619-2.8438c0.0501-0.38136 0.08744-0.74203 0.15666-1.1562l-1.0026-1zm0.72063 3.125c0.75333 0.28777 1.2846 1.0224 1.2846 1.875s-0.53126 1.5872-1.2846 1.875c-0.12126-1.289-0.12126-2.461 0-3.75zm-1.5039 0.03125c9e-3 -0.0038 0.02227 0.00367 0.03133 0 0.13493 1.3899 0.15101 2.4826 0.03133 3.7188-0.75333-0.28777-1.2846-1.0224-1.2846-1.875 0-0.82843 0.50223-1.5401 1.2219-1.8438zm-1.7232 8.8438c-0.27686 0-0.50131 0.22386-0.50131 0.5s0.22444 0.5 0.50131 0.5c0.27686 0 0.5013-0.22386 0.5013-0.5s-0.22444-0.5-0.5013-0.5zm5.0131 0c-0.27686 0-0.50131 0.22386-0.50131 0.5s0.22444 0.5 0.50131 0.5 0.5013-0.22386 0.5013-0.5-0.22444-0.5-0.5013-0.5z"/>
</svg>
